X:1
T:Miss C. Elphinstone’s Strathspey
M:C|
L:1/8
R:Strathspey
B:MacIntyre  –  Collection of Slow Airs, Reels & Strathspeys (1794)
Z:AK/Fiddler’s Companion
K:A
c|{G}A2 EF/G/ A/G/F/E/ AC|D<FE>C B,/B,/B, B,>d|c/d/e Ac d/e/f/d/ Bd|
c<eB>c A/A/A A:||f/g/|a/g/f/e/ ca dbca|Aaca B/B/B Bf/g/|
a/g/f/e/ ca dbca|Fd/c/ Be/d/ cA Af/g/|a/g/f/e/ ca dbca|
Aaca f/e/d/c/ B/c/d/f/|e/d/c/B/ AE FADf|e<ca>c A/A/A A||

